status/64/dialog-password.svg

<?xml version="1.0" encoding="UTF-8" standalone="no"?>
<svg
   xmlns:dc="http://purl.org/dc/elements/1.1/"
   xmlns:cc="http://creativecommons.org/ns#"
   xmlns:rdf="http://www.w3.org/1999/02/22-rdf-syntax-ns#"
   xmlns:svg="http://www.w3.org/2000/svg"
   xmlns="http://www.w3.org/2000/svg"
   xmlns:xlink="http://www.w3.org/1999/xlink"
   xmlns:sodipodi="http://sodipodi.sourceforge.net/DTD/sodipodi-0.dtd"
   xmlns:inkscape="http://www.inkscape.org/namespaces/inkscape"
   version="1.1"
   width="64"
   height="64"
   id="svg3489"
   inkscape:version="0.91 r13725"
   sodipodi:docname="dialog-password.svg">
  <sodipodi:namedview
     pagecolor="#ffffff"
     bordercolor="#666666"
     borderopacity="1"
     objecttolerance="10"
     gridtolerance="10"
     guidetolerance="10"
     inkscape:pageopacity="0"
     inkscape:pageshadow="2"
     inkscape:window-width="1366"
     inkscape:window-height="712"
     id="namedview48"
     showgrid="false"
     inkscape:zoom="1"
     inkscape:cx="51.49986"
     inkscape:cy="26.250025"
     inkscape:window-x="0"
     inkscape:window-y="30"
     inkscape:window-maximized="1"
     inkscape:current-layer="svg3489"
     inkscape:object-nodes="true"
     inkscape:snap-smooth-nodes="true">
    <inkscape:grid
       type="xygrid"
       id="grid4176"
       empspacing="4" />
  </sodipodi:namedview>
  <defs
     id="defs3491">
    <linearGradient
       id="linearGradient4806">
      <stop
         id="stop4808"
         style="stop-color:#ffffff;stop-opacity:1"
         offset="0" />
      <stop
         id="stop4810"
         style="stop-color:#ffffff;stop-opacity:0.23529412"
         offset="0.42447853" />
      <stop
         id="stop4812"
         style="stop-color:#ffffff;stop-opacity:0.15686275"
         offset="0.82089913" />
      <stop
         id="stop4814"
         style="stop-color:#ffffff;stop-opacity:0.39215687"
         offset="1" />
    </linearGradient>
    <linearGradient
       id="linearGradient3820-7-2">
      <stop
         id="stop3822-2-6"
         style="stop-color:#000000;stop-opacity:1"
         offset="0" />
      <stop
         id="stop3824-1-2"
         style="stop-color:#000000;stop-opacity:0"
         offset="1" />
    </linearGradient>
    <linearGradient
       id="linearGradient3957-2">
      <stop
         offset="0"
         style="stop-color:#ffffff;stop-opacity:1"
         id="stop3959-62" />
      <stop
         offset="1"
         style="stop-color:#c1c1c1;stop-opacity:1"
         id="stop3961-5" />
    </linearGradient>
    <linearGradient
       id="linearGradient2867-449-88-871-390-598-476-591-434-148-57-177-3-8">
      <stop
         offset="0"
         style="stop-color:#90dbec;stop-opacity:1"
         id="stop3750-8-9" />
      <stop
         offset="0.26238"
         style="stop-color:#42baea;stop-opacity:1"
         id="stop3752-3-2" />
      <stop
         offset="0.704952"
         style="stop-color:#3689e6;stop-opacity:1"
         id="stop3754-7-2" />
      <stop
         offset="1"
         style="stop-color:#2b63a0;stop-opacity:1"
         id="stop3756-9-3" />
    </linearGradient>
    <linearGradient
       id="linearGradient3957">
      <stop
         offset="0"
         style="stop-color:#ffffff;stop-opacity:1"
         id="stop3959" />
      <stop
         offset="1"
         style="stop-color:#c1c1c1;stop-opacity:1"
         id="stop3961" />
    </linearGradient>
    <linearGradient
       id="linearGradient4168">
      <stop
         offset="0"
         style="stop-color:#f8b17e;stop-opacity:1"
         id="stop4170" />
      <stop
         offset="0.23208089"
         style="stop-color:#e35d4f;stop-opacity:1"
         id="stop4172" />
      <stop
         offset="0.5908742"
         style="stop-color:#c6262e;stop-opacity:1"
         id="stop4174" />
      <stop
         offset="1"
         style="stop-color:#690b54;stop-opacity:1"
         id="stop4176" />
    </linearGradient>
    <linearGradient
       xlink:href="#linearGradient4806"
       id="linearGradient3293"
       gradientUnits="userSpaceOnUse"
       gradientTransform="matrix(2.3268746,0,0,2.3268746,-135.94475,-32.842783)"
       x1="71.204407"
       y1="15.369057"
       x2="71.204407"
       y2="40.495617" />
    <radialGradient
       xlink:href="#linearGradient3820-7-2"
       id="radialGradient3300"
       gradientUnits="userSpaceOnUse"
       gradientTransform="matrix(0.3823536,7.5555777e-8,-1.8372241e-8,0.1115198,-5.9254271,36.335849)"
       cx="99.189415"
       cy="185.29727"
       fx="99.189415"
       fy="185.29727"
       r="62.769119" />
    <linearGradient
       xlink:href="#linearGradient3957"
       id="linearGradient4131"
       gradientUnits="userSpaceOnUse"
       gradientTransform="translate(8.0000046,8.0000026)"
       x1="24"
       y1="22"
       x2="24"
       y2="26" />
    <linearGradient
       xlink:href="#linearGradient3957-2"
       id="linearGradient4137"
       gradientUnits="userSpaceOnUse"
       gradientTransform="matrix(1.4390244,0,0,1.4390244,-2.536585,-2.5365857)"
       x1="21.013996"
       y1="25.433903"
       x2="22.805599"
       y2="27.343702" />
    <linearGradient
       xlink:href="#linearGradient4168"
       id="linearGradient4140"
       gradientUnits="userSpaceOnUse"
       gradientTransform="matrix(1.4390244,0,0,1.4390244,-2.536585,-2.5365857)"
       x1="27.92535"
       y1="15.149301"
       x2="33.447899"
       y2="22.986004" />
    <radialGradient
       xlink:href="#linearGradient3907"
       id="radialGradient4145"
       gradientUnits="userSpaceOnUse"
       gradientTransform="matrix(0,3.5958841,-3.8040162,-9.7874431e-8,64.14322,-20.064576)"
       cx="3.9722471"
       cy="8.4497671"
       fx="3.9722471"
       fy="8.4497671"
       r="19.99999" />
    <radialGradient
       inkscape:collect="always"
       xlink:href="#linearGradient3820-7-2"
       id="radialGradient4192"
       gradientUnits="userSpaceOnUse"
       gradientTransform="matrix(0.2549024,5.3967361e-8,-1.2248161e-8,0.07965545,6.7163816,44.240666)"
       cx="99.189415"
       cy="185.29727"
       fx="99.189415"
       fy="185.29727"
       r="62.769119" />
    <linearGradient
       xlink:href="#linearGradient4011-0"
       id="linearGradient3217"
       gradientUnits="userSpaceOnUse"
       gradientTransform="matrix(1.3243246,0,0,1.3243246,4.8803675,12.801774)"
       x1="71.204407"
       y1="6.2375584"
       x2="71.204407"
       y2="44.340794" />
    <linearGradient
       id="linearGradient4011-0">
      <stop
         offset="0"
         style="stop-color:#ffffff;stop-opacity:1"
         id="stop4013-9" />
      <stop
         offset="0.507761"
         style="stop-color:#ffffff;stop-opacity:0.23529412"
         id="stop4015-9" />
      <stop
         offset="0.83456558"
         style="stop-color:#ffffff;stop-opacity:0.15686275"
         id="stop4017-0" />
      <stop
         offset="1"
         style="stop-color:#ffffff;stop-opacity:0.39215687"
         id="stop4019-81" />
    </linearGradient>
    <linearGradient
       xlink:href="#linearGradient27416-1-2-0-1"
       id="linearGradient3163"
       gradientUnits="userSpaceOnUse"
       gradientTransform="matrix(0.84292897,0,0,1.5343737,144.92688,-42.641562)"
       x1="30.271185"
       y1="10.028973"
       x2="30.271185"
       y2="55.052982" />
    <linearGradient
       id="linearGradient27416-1-2-0-1">
      <stop
         offset="0"
         style="stop-color:#55c1ec;stop-opacity:1"
         id="stop27420-2-0-8-7" />
      <stop
         offset="1"
         style="stop-color:#3689e6;stop-opacity:1"
         id="stop27422-3-5-3-3" />
    </linearGradient>
    <radialGradient
       xlink:href="#linearGradient3820-7-2"
       id="radialGradient3300-6"
       gradientUnits="userSpaceOnUse"
       gradientTransform="matrix(0.3823536,7.5555777e-8,-1.8372241e-8,0.1115198,-5.9254271,36.335849)"
       cx="99.189415"
       cy="185.29727"
       fx="99.189415"
       fy="185.29727"
       r="62.769119" />
    <linearGradient
       xlink:href="#linearGradient4011-0"
       id="linearGradient3209"
       gradientUnits="userSpaceOnUse"
       gradientTransform="matrix(1.3243242,0,0,1.3243242,-7.670749,-10.886325)"
       x1="71.204407"
       y1="6.2375584"
       x2="71.204407"
       y2="44.340794" />
    <linearGradient
       xlink:href="#linearGradient3881"
       id="linearGradient3198"
       gradientUnits="userSpaceOnUse"
       gradientTransform="matrix(1.3333337,0,0,1.3636363,-1.57e-4,-0.72727)"
       x1="24"
       y1="14"
       x2="24"
       y2="33" />
    <linearGradient
       id="linearGradient3881">
      <stop
         id="stop3883"
         offset="0"
         style="stop-color:#2d2d2d;stop-opacity:1" />
      <stop
         id="stop3885"
         offset="1"
         style="stop-color:#3f3f3f;stop-opacity:1" />
    </linearGradient>
    <linearGradient
       xlink:href="#linearGradient4011-0"
       id="linearGradient3202"
       gradientUnits="userSpaceOnUse"
       gradientTransform="matrix(0.62162177,0,0,-0.62162177,-12.591258,47.762613)"
       x1="71.204407"
       y1="6.2375584"
       x2="71.204407"
       y2="44.340794" />
    <linearGradient
       xlink:href="#linearGradient4011-0"
       id="linearGradient3205"
       gradientUnits="userSpaceOnUse"
       gradientTransform="matrix(1.0540541,0,0,-1.0540541,11.716682,49.422782)"
       x1="71.204407"
       y1="6.2375584"
       x2="71.204407"
       y2="44.340794" />
    <clipPath
       id="clipPath3865"
       clipPathUnits="userSpaceOnUse">
      <path
         inkscape:connector-curvature="0"
         style="opacity:0.2;fill:#000000;fill-opacity:1;stroke:none"
         id="path3867"
         d="m 32,24 a 8,8 0 1 1 -16,0 8,8 0 1 1 16,0 z" />
    </clipPath>
    <linearGradient
       xlink:href="#outerBackgroundGradient-0"
       id="linearGradient3214"
       gradientUnits="userSpaceOnUse"
       gradientTransform="matrix(0,1.3571428,-1.3571428,0,118.54198,-8.5194048)"
       x1="9"
       y1="23"
       x2="37"
       y2="23" />
    <linearGradient
       id="outerBackgroundGradient-0">
      <stop
         id="stop3864-8-6-3"
         offset="0"
         style="stop-color:#c3c3c3;stop-opacity:1;" />
      <stop
         id="stop3866-9-1-7"
         offset="1"
         style="stop-color:#ebebeb;stop-opacity:1;" />
    </linearGradient>
    <linearGradient
       xlink:href="#linearGradient3907"
       id="linearGradient3217-5"
       gradientUnits="userSpaceOnUse"
       gradientTransform="matrix(0,1.8214283,-1.8214283,0,129.22054,-19.19797)"
       x1="9"
       y1="23"
       x2="37"
       y2="23" />
    <linearGradient
       id="linearGradient3907">
      <stop
         id="stop3909"
         offset="0"
         style="stop-color:#ffffff;stop-opacity:1;" />
      <stop
         id="stop3911"
         offset="1"
         style="stop-color:#b6b6b6;stop-opacity:1" />
    </linearGradient>
    <radialGradient
       xlink:href="#linearGradient3820-7-2"
       id="radialGradient3300-0"
       gradientUnits="userSpaceOnUse"
       gradientTransform="matrix(0.3823536,7.5555777e-8,-1.8372241e-8,0.1115198,-5.9254271,36.335849)"
       cx="99.189415"
       cy="185.29727"
       fx="99.189415"
       fy="185.29727"
       r="62.769119" />
  </defs>
  <metadata
     id="metadata3494">
    <rdf:RDF>
      <cc:Work
         rdf:about="">
        <dc:format>image/svg+xml</dc:format>
        <dc:type
           rdf:resource="http://purl.org/dc/dcmitype/StillImage" />
        <dc:title></dc:title>
      </cc:Work>
    </rdf:RDF>
  </metadata>
  <g
     id="g4198">
    <path
       inkscape:connector-curvature="0"
       d="m 55.999998,57.0017 a 24,6.9985714 0 1 1 -47.9999991,0 24,6.9985714 0 1 1 47.9999991,0 z"
       id="path3818-0"
       style="opacity:0.2;fill:url(#radialGradient3300);fill-opacity:1;stroke:none" />
    <path
       style="opacity:0.4;fill:url(#radialGradient4192);fill-opacity:1;stroke:none"
       id="path4190"
       d="m 47.999998,59.0017 a 16,4.9988822 0 1 1 -31.999999,0 16,4.9988822 0 1 1 31.999999,0 z"
       inkscape:connector-curvature="0" />
  </g>
  <path
     d="M 32.000004,2.4999968 C 15.722922,2.4999968 2.5,15.722913 2.5,31.999997 2.5,48.277081 15.722922,61.500004 32.000004,61.5 48.27708,61.5 61.500016,48.277081 61.5,31.999997 61.5,15.722913 48.27708,2.4999968 32.000004,2.4999968 z"
     id="path2555"
     style="color:#000000;fill:url(#radialGradient4145);fill-opacity:1.0;fill-rule:nonzero;stroke:none;stroke-width:1;marker:none;visibility:visible;display:inline;overflow:visible;enable-background:accumulate" />
  <path
     style="opacity:0.3;color:#000000;fill:none;stroke:#000000;stroke-width:1;stroke-linecap:round;stroke-linejoin:round;stroke-miterlimit:4;stroke-opacity:1;stroke-dasharray:none;stroke-dashoffset:0;marker:none;visibility:visible;display:inline;overflow:visible;enable-background:accumulate;fill-opacity:0;fill-rule:nonzero"
     id="path2555-7-1"
     d="m 32,2.499999 c -16.277082,0 -29.5,13.222915 -29.5,29.499998 0,16.277083 13.222918,29.500005 29.5,29.5 16.27708,0 29.50001,-13.222917 29.5,-29.5 C 61.5,15.722914 48.27708,2.499999 32,2.499999 z" />
  <path
     style="opacity:0.5;color:#000000;fill:none;stroke:url(#linearGradient3293);stroke-width:1;stroke-linecap:round;stroke-linejoin:round;stroke-miterlimit:4;stroke-opacity:1;stroke-dasharray:none;stroke-dashoffset:0;marker:none;visibility:visible;display:inline;overflow:visible;enable-background:accumulate"
     id="path3019"
     d="m 60.50001,31.999999 c 0,15.740115 -12.7599,28.499999 -28.50002,28.499999 -15.740099,0 -28.499991,-12.759884 -28.499991,-28.499999 0,-15.740116 12.759892,-28.5000013 28.499991,-28.5000013 15.74012,0 28.50002,12.7598853 28.50002,28.5000013 z" />
  <g
     id="g4488"
     transform="matrix(1.1538461,0,0,1.1538461,-68.762709,5.8135983)">
    <path
       d="m 87.328367,3.6948823 c -10.493754,0 -19.000679,8.5072157 -19.000679,18.9997597 0,10.493505 8.507018,19.000238 19.000679,19.000238 10.49326,0 18.999323,-8.506733 18.999323,-19.000238 0,-10.492544 -8.506063,-18.9997597 -18.999323,-18.9997597 l 0,0 z"
       id="path3824"
       style="fill:url(#linearGradient3214);fill-opacity:1;fill-rule:nonzero;stroke:none"
       inkscape:connector-curvature="0" />
    <path
       d="m 106.82769,22.695572 c 0,-10.769901 -8.731101,-19.5006917 -19.499752,-19.5006917 -10.769651,0 -19.50025,8.7308897 -19.50025,19.5006917 0,10.769403 8.730599,19.499309 19.50025,19.499309 10.768651,0 19.499752,-8.729906 19.499752,-19.499309 l 0,0 z"
       id="path8655-1"
       style="color:#000000;display:inline;overflow:visible;visibility:visible;fill:none;stroke:url(#linearGradient3205);stroke-width:0.86666667;stroke-linecap:round;stroke-linejoin:round;stroke-miterlimit:4;stroke-dasharray:none;stroke-dashoffset:0;stroke-opacity:1;marker:none;enable-background:accumulate"
       inkscape:connector-curvature="0" />
  </g>
  <g
     id="g4492"
     transform="matrix(1.173913,0,0,1.173913,-5.5650457,-5.5652176)">
    <path
       sodipodi:nodetypes="sssss"
       d="m 42.999855,32 c 0,6.075136 -4.924868,10.999995 -11,10.999995 -6.075132,0 -11,-4.924859 -11,-10.999995 0,-6.075136 4.924868,-10.999995 11,-10.999995 6.075132,0 11,4.924859 11,10.999995 z"
       id="path3857"
       style="opacity:0.1;fill:#000000;fill-opacity:1;stroke:none"
       inkscape:connector-curvature="0" />
    <path
       sodipodi:nodetypes="sssss"
       clip-path="url(#clipPath3865)"
       style="opacity:0.1;fill:none;stroke:#000000;stroke-width:1.24121535;stroke-miterlimit:4;stroke-dasharray:none;stroke-opacity:1"
       id="path3859"
       d="m 32,24 c 0,4.418281 -3.581722,7.999997 -8,7.999997 -4.418278,0 -8,-3.581716 -8,-7.999997 0,-4.418281 3.581722,-7.999997 8,-7.999997 4.418278,0 8,3.581716 8,7.999997 z"
       transform="matrix(1.3726093,0,0,1.3726093,-0.942768,-0.942623)"
       inkscape:connector-curvature="0" />
    <path
       sodipodi:nodetypes="cssscc"
       d="m 43.499855,32.000408 c 0,-6.35148 -5.149107,-11.500411 -11.499855,-11.500411 -6.351328,0 -11.500145,5.148988 -11.500145,11.500411 0,6.351188 5.148817,11.499595 11.500145,11.499595 6.350748,0 11.499855,-5.148407 11.499855,-11.499595 z"
       id="path8655-1-6"
       style="color:#000000;display:inline;overflow:visible;visibility:visible;opacity:0.5;fill:none;stroke:url(#linearGradient3202);stroke-width:0.85185188;stroke-linecap:round;stroke-linejoin:round;stroke-miterlimit:4;stroke-dasharray:none;stroke-dashoffset:0;stroke-opacity:1;marker:none;enable-background:accumulate"
       inkscape:connector-curvature="0" />
  </g>
  <path
     inkscape:connector-curvature="0"
     style="color:#000000;display:inline;overflow:visible;visibility:visible;opacity:0.5;fill:#ffffff;fill-opacity:1;fill-rule:nonzero;stroke:none;marker:none;enable-background:accumulate"
     d="m 27.999855,16 8,0 0,18.250001 -2.66667,2.5 2.66667,2.5 0,10.749999 -8,0 0,-18.249999 2.66666,-2.5 -2.66666,-2.5 z"
     id="rect3030-23"
     sodipodi:nodetypes="ccccccccccc" />
  <path
     inkscape:connector-curvature="0"
     style="fill:url(#linearGradient3198);fill-opacity:1;stroke:none"
     d="m 27.999855,15 8,0 0,18.250001 -2.66667,2.5 2.66667,2.5 0,10.749999 -8,0 0,-18.249999 2.66666,-2.5 -2.66666,-2.5 z"
     id="rect3030"
     sodipodi:nodetypes="ccccccccccc" />
  <path
     inkscape:connector-curvature="0"
     style="opacity:0.3;fill:none;stroke:#000000;stroke-width:1;stroke-opacity:1"
     d="m 28.499855,15.500001 7,0 0,17.531504 -2.90854,2.72958 2.90854,2.724609 0,10.014308 -7,0 0,-17.520743 2.915233,-2.729579 -2.915233,-2.735371 z"
     id="rect3030-2"
     sodipodi:nodetypes="ccccccccccc" />
</svg>

<svg xmlns="http://www.w3.org/2000/svg" xmlns:xlink="http://www.w3.org/1999/xlink" width="64" height="64"><defs><linearGradient id="a"><stop offset="0" stop-color="#fff"/><stop offset=".424" stop-color="#fff" stop-opacity=".235"/><stop offset=".821" stop-color="#fff" stop-opacity=".157"/><stop offset="1" stop-color="#fff" stop-opacity=".392"/></linearGradient><linearGradient id="b"><stop offset="0"/><stop offset="1" stop-opacity="0"/></linearGradient><linearGradient xlink:href="#a" id="j" gradientUnits="userSpaceOnUse" gradientTransform="translate(-135.945 -32.843) scale(2.32687)" x1="71.204" y1="15.369" x2="71.204" y2="40.496"/><radialGradient xlink:href="#b" id="g" gradientUnits="userSpaceOnUse" gradientTransform="matrix(.38235 0 0 .11152 -5.925 36.336)" cx="99.189" cy="185.297" fx="99.189" fy="185.297" r="62.769"/><radialGradient xlink:href="#c" id="i" gradientUnits="userSpaceOnUse" gradientTransform="matrix(0 3.59588 -3.80402 0 64.143 -20.065)" cx="3.972" cy="8.45" fx="3.972" fy="8.45" r="20"/><radialGradient xlink:href="#b" id="h" gradientUnits="userSpaceOnUse" gradientTransform="matrix(.2549 0 0 .07966 6.716 44.24)" cx="99.189" cy="185.297" fx="99.189" fy="185.297" r="62.769"/><linearGradient id="e"><stop offset="0" stop-color="#fff"/><stop offset=".508" stop-color="#fff" stop-opacity=".235"/><stop offset=".835" stop-color="#fff" stop-opacity=".157"/><stop offset="1" stop-color="#fff" stop-opacity=".392"/></linearGradient><linearGradient xlink:href="#d" id="o" gradientUnits="userSpaceOnUse" gradientTransform="matrix(1.33333 0 0 1.36364 0 -.727)" x1="24" y1="14" x2="24" y2="33"/><linearGradient id="d"><stop offset="0" stop-color="#2d2d2d"/><stop offset="1" stop-color="#3f3f3f"/></linearGradient><linearGradient xlink:href="#e" id="n" gradientUnits="userSpaceOnUse" gradientTransform="matrix(.62162 0 0 -.62162 -12.59 47.763)" x1="71.204" y1="6.238" x2="71.204" y2="44.341"/><linearGradient xlink:href="#e" id="l" gradientUnits="userSpaceOnUse" gradientTransform="matrix(1.05405 0 0 -1.05405 11.717 49.423)" x1="71.204" y1="6.238" x2="71.204" y2="44.341"/><clipPath id="m"><path d="M32 24a8 8 0 1 1-16 0 8 8 0 1 1 16 0z" opacity=".2"/></clipPath><linearGradient xlink:href="#f" id="k" gradientUnits="userSpaceOnUse" gradientTransform="rotate(90 63.53 55.01) scale(1.35714)" x1="9" y1="23" x2="37" y2="23"/><linearGradient id="f"><stop offset="0" stop-color="#c3c3c3"/><stop offset="1" stop-color="#ebebeb"/></linearGradient><linearGradient id="c"><stop offset="0" stop-color="#fff"/><stop offset="1" stop-color="#b6b6b6"/></linearGradient></defs><path d="M56 57.002a24 7 0 1 1-48 0 24 7 0 1 1 48 0z" opacity=".2" fill="url(#g)"/><path d="M48 59.002a16 5 0 1 1-32 0 16 5 0 1 1 32 0z" opacity=".4" fill="url(#h)"/><path d="M32 2.5C15.723 2.5 2.5 15.723 2.5 32S15.723 61.5 32 61.5 61.5 48.277 61.5 32 48.277 2.5 32 2.5z" color="#000" fill="url(#i)" overflow="visible"/><path d="M32 2.5C15.723 2.5 2.5 15.723 2.5 32S15.723 61.5 32 61.5 61.5 48.277 61.5 32 48.277 2.5 32 2.5z" opacity=".3" color="#000" fill="none" stroke="#000" stroke-linecap="round" stroke-linejoin="round" overflow="visible"/><path d="M60.5 32c0 15.74-12.76 28.5-28.5 28.5S3.5 47.74 3.5 32 16.26 3.5 32 3.5 60.5 16.26 60.5 32z" opacity=".5" color="#000" fill="none" stroke="url(#j)" stroke-linecap="round" stroke-linejoin="round" overflow="visible"/><path d="M87.328 3.695c-10.493 0-19 8.507-19 19s8.507 19 19 19c10.494 0 19-8.507 19-19s-8.506-19-19-19z" fill="url(#k)" transform="translate(-68.763 5.814) scale(1.15385)"/><path d="M106.828 22.696c0-10.77-8.73-19.5-19.5-19.5s-19.5 8.73-19.5 19.5 8.73 19.5 19.5 19.5 19.5-8.73 19.5-19.5z" color="#000" overflow="visible" fill="none" stroke="url(#l)" stroke-width=".867" stroke-linecap="round" stroke-linejoin="round" transform="translate(-68.763 5.814) scale(1.15385)"/><path d="M44.913 32c0 7.132-5.78 12.913-12.913 12.913-7.132 0-12.913-5.78-12.913-12.913 0-7.132 5.78-12.913 12.913-12.913 7.132 0 12.913 5.78 12.913 12.913z" opacity=".1"/><path clip-path="url(#m)" d="M32 24a8 8 0 1 1-16 0 8 8 0 0 1 16 0z" transform="translate(-6.672 -6.672) scale(1.61132)" opacity=".1" fill="none" stroke="#000" stroke-width="1.241"/><path d="M43.5 32c0-6.35-5.15-11.5-11.5-11.5S20.5 25.65 20.5 32c0 6.352 5.15 11.5 11.5 11.5S43.5 38.352 43.5 32z" color="#000" overflow="visible" opacity=".5" fill="none" stroke="url(#n)" stroke-width=".852" stroke-linecap="round" stroke-linejoin="round" transform="translate(-5.565 -5.565) scale(1.174)"/><path d="M28 16h8v18.25l-2.667 2.5L36 39.25V50h-8V31.75l2.667-2.5L28 26.75z" color="#000" overflow="visible" opacity=".5" fill="#fff"/><path d="M28 15h8v18.25l-2.667 2.5L36 38.25V49h-8V30.75l2.667-2.5L28 25.75z" fill="url(#o)"/><path d="M28.5 15.5h7v17.532l-2.91 2.73 2.91 2.724V48.5h-7V30.98l2.915-2.73-2.915-2.736z" opacity=".3" fill="none" stroke="#000"/></svg>
